X: 20570
T: John Nee's
R: reel
M: 4/4
K: Adorian
cd|:eAAG AcBA|GEDE GABd|e2 AB cdeg|afge d2 cd|
eAAG AcBA|GEDE GABd|e/f/g af gedB|GBdB BA A2:|
c3 d e g3|e a3 g2 fg|e2 AB cdeg|afge dged|
cBcd e g3|e a3 gedB|c2 BA GEDE|GABG A3 B:|

